apps/64/kopete.svg

<svg xmlns="http://www.w3.org/2000/svg" style="isolation:isolate" width="256" height="256"><defs><filter id="a" x="-200%" y="-200%" width="400%" height="400%" filterUnits="objectBoundingBox" color-interpolation-filters="sRGB"><feGaussianBlur xmlns="http://www.w3.org/2000/svg" in="SourceGraphic" stdDeviation="4.294"/><feOffset xmlns="http://www.w3.org/2000/svg" dy="4" result="pf_100_offsetBlur"/><feFlood xmlns="http://www.w3.org/2000/svg" flood-color="#000" flood-opacity=".4"/><feComposite xmlns="http://www.w3.org/2000/svg" in2="pf_100_offsetBlur" operator="in" result="pf_100_dropShadow"/><feBlend xmlns="http://www.w3.org/2000/svg" in="SourceGraphic" in2="pf_100_dropShadow"/></filter></defs><path d="M165.685 11.947c74.055 0 84.639 10.557 84.639 84.544v59.251c0 73.986-10.584 84.543-84.639 84.543h-75.37c-74.055 0-84.639-10.557-84.639-84.543V96.491c0-73.987 10.584-84.544 84.639-84.544h75.37z" fill="#9B33AE" filter="url(#a)"/><path d="M249.643 83.58L44.234 236.61c11.562 2.311 26.426 3.019 45.523 3.019h75.37c74.055 0 84.639-10.558 84.639-84.544V95.834c0-4.303-.041-8.37-.123-12.254z" fill="#FFF" opacity=".1"/><g opacity=".2" filter="url(#b)"><linearGradient id="c" x1=".361" y1=".004" x2=".856" y2=".533" gradientTransform="matrix(163.098 0 0 121.4496 46.451 68.141)" gradientUnits="userSpaceOnUse"><stop offset="14.256%"/><stop offset="61.845%"/><stop offset="85.257%"/></linearGradient><path d="M65.138 68.145c-7.287-.091-12.184 1.545-14.697 4.56-2.638 3.142-3.99 8.295-3.99 15.457v65.301c0 7.161 1.352 12.314 3.99 15.455 2.513 3.016 7.409 4.562 14.697 4.562h17.307l22.825 16.111 22.826-16.111h62.766c7.288 0 12.184-1.546 14.697-4.562 2.638-3.141 3.99-8.294 3.99-15.455V88.162c0-7.162-1.352-12.315-3.99-15.457-2.513-3.015-7.409-4.56-14.697-4.56H65.138z" fill="url(#c)"/></g><defs><filter id="b" x="-200%" y="-200%" width="400%" height="400%" filterUnits="objectBoundingBox" color-interpolation-filters="sRGB"><feGaussianBlur xmlns="http://www.w3.org/2000/svg" stdDeviation="10.766"/></filter></defs><defs><filter id="d" x="-200%" y="-200%" width="400%" height="400%" filterUnits="objectBoundingBox" color-interpolation-filters="sRGB"><feGaussianBlur xmlns="http://www.w3.org/2000/svg" stdDeviation="1.346"/></filter></defs><path d="M65.138 68.145c-7.287-.091-12.184 1.545-14.697 4.56-2.638 3.142-3.99 8.295-3.99 15.457v65.301c0 7.161 1.352 12.314 3.99 15.455 2.513 3.016 7.409 4.562 14.697 4.562h17.307l22.825 16.111 22.826-16.111h62.766c7.288 0 12.184-1.546 14.697-4.562 2.638-3.141 3.99-8.294 3.99-15.455V88.162c0-7.162-1.352-12.315-3.99-15.457-2.513-3.015-7.409-4.56-14.697-4.56H65.138z" opacity=".1" filter="url(#d)"/><linearGradient id="e" x1=".631" y1=".775" x2=".636" y2=".427" gradientTransform="matrix(163.098 0 0 89.541 46.451 99.032)" gradientUnits="userSpaceOnUse"><stop offset="0%" stop-opacity=".996" stop-color="#edd2f3"/><stop offset="100%" stop-color="#f5eef7"/></linearGradient><path d="M46.451 99.032v53.411c0 7.162 1.351 12.315 3.989 15.456 2.513 3.015 7.41 4.561 14.698 4.561h17.307l22.824 16.113 22.827-16.113h62.766c7.288 0 12.185-1.546 14.698-4.561 2.638-3.141 3.989-8.294 3.989-15.456V99.032H46.451z" fill="url(#e)"/><linearGradient id="f" x1=".361" y1=".01" x2=".361" y2=".967" gradientTransform="matrix(163.098 0 0 122.16344 46.451 66.409)" gradientUnits="userSpaceOnUse"><stop offset="0%" stop-color="#fdfdfb"/><stop offset="100%" stop-color="#f0e9df"/></linearGradient><path d="M65.138 66.412c-7.287-.091-12.184 1.629-14.697 4.644-2.638 3.141-3.99 8.295-3.99 15.456v63.419l35.994 22.529 22.825 16.112 22.825-16.112 81.454-61.85V86.512c0-7.161-1.352-12.315-3.99-15.456-2.513-3.015-7.409-4.644-14.696-4.644H65.138z" fill="url(#f)"/><g opacity=".1"><linearGradient id="g" x1=".612" y1=".365" x2=".714" y2=".466" gradientTransform="matrix(81.454 0 0 61.85 128.095 110.61)" gradientUnits="userSpaceOnUse"><stop offset="0%" stop-color="#d4a1c8"/><stop offset="100%" stop-opacity="0" stop-color="#d4a1c8"/></linearGradient><path d="M209.549 110.61l-81.454 61.85h62.768c7.287 0 12.183-1.545 14.696-4.561 2.638-3.141 3.99-8.294 3.99-15.456V110.61z" fill="url(#g)"/></g><g opacity=".1"><linearGradient id="h" x1=".368" y1=".105" x2=".178" y2=".261" gradientTransform="matrix(35.994 0 0 22.70333 46.451 149.931)" gradientUnits="userSpaceOnUse"><stop offset="0%" stop-opacity=".996" stop-color="#e6a240"/><stop offset="100%" stop-opacity=".275" stop-color="#eab261"/></linearGradient><path d="M46.451 149.931v2.512c0 7.162 1.352 12.315 3.99 15.456 2.513 3.016 7.459 5.414 14.697 4.561h17.307l-35.994-22.529z" fill="url(#h)"/></g><path d="M65.138 66.412c-7.287-.091-12.185 1.629-14.698 4.645-2.638 3.141-3.989 8.294-3.989 15.456v2.038c0-7.161 1.351-12.314 3.989-15.455 2.513-3.016 7.411-4.736 14.698-4.645h125.724c7.288 0 12.185 1.629 14.698 4.645 2.638 3.141 3.989 8.294 3.989 15.455v-2.038c0-7.162-1.351-12.315-3.989-15.456-2.513-3.015-7.41-4.645-14.698-4.645H65.138z" fill="#FFF"/><path d="M121.114 77.611c2.116 3.069 3.917 6.086 5.425 9.075a59.397 59.397 0 0 1 3.699 9.125 56.473 56.473 0 0 1 2.17 9.47c.45 3.227.642 6.638.642 10.209 0 3.598-.192 7.005-.642 10.259-.449 3.228-1.191 6.352-2.17 9.421a57.793 57.793 0 0 1-3.699 9.075c-1.508 2.99-3.309 6.029-5.425 9.125h11.147a75.71 75.71 0 0 0 5.277-8.78 57.013 57.013 0 0 0 3.65-8.976c1-3.12 1.725-6.322 2.17-9.569.476-3.333.691-6.847.691-10.604 0-3.783-.215-7.324-.691-10.604a55.391 55.391 0 0 0-2.17-9.519 55.514 55.514 0 0 0-3.65-8.928 75.784 75.784 0 0 0-5.277-8.779h-11.147zm-46.61 15.783v12.626h12.627V93.394H74.504zM96.6 110.755v9.47h22.097v-9.47H96.6zM74.701 124.96v12.479h5.574c0 1.126-.156 1.657-.444 2.811-.288 1.154-.714 2.298-1.233 3.453-.519 1.154-1.104 2.305-1.825 3.403a30.96 30.96 0 0 1-2.269 3.107h7.941c.721-.985 1.396-2.009 1.973-3.107.605-1.168 1.1-2.39 1.48-3.65.403-1.295.686-2.693.887-4.242.231-1.548.346-3.292.346-5.178v-9.076h-12.43z" fill="#B962A7" opacity=".58"/><g opacity=".4"><linearGradient id="i" x1=".517" x2=".517" y2="1" gradientTransform="matrix(244.65 0 0 228.34 5.68 11.95)" gradientUnits="userSpaceOnUse"><stop offset="0%" stop-color="#fff"/><stop offset="12.5%" stop-opacity=".098" stop-color="#fff"/><stop offset="92.5%" stop-opacity=".098"/><stop offset="100%" stop-opacity=".498"/></linearGradient><path d="M165.068 11.951c4.328-.01 8.656.04 12.984.138 3.875.078 7.75.226 11.626.452 3.453.196 6.905.481 10.348.854 3.06.335 6.118.786 9.148 1.346a80.47 80.47 0 0 1 8.046 1.916 53.64 53.64 0 0 1 7.023 2.584 40.413 40.413 0 0 1 6.06 3.35 35.176 35.176 0 0 1 5.134 4.215 35.072 35.072 0 0 1 4.22 5.119 41.692 41.692 0 0 1 3.363 6.042 55.982 55.982 0 0 1 2.597 7.005 80.224 80.224 0 0 1 1.918 8.037 124.43 124.43 0 0 1 1.348 9.127c.374 3.439.659 6.878.856 10.326.226 3.861.373 7.732.462 11.593.088 4.323.138 8.646.128 12.96v58.21c.01 4.324-.04 8.637-.128 12.96a325.177 325.177 0 0 1-.462 11.593 200.984 200.984 0 0 1-.856 10.326 124.691 124.691 0 0 1-1.348 9.137 80.687 80.687 0 0 1-1.918 8.027 55.414 55.414 0 0 1-2.597 7.005 41.18 41.18 0 0 1-3.364 6.042 34.559 34.559 0 0 1-4.22 5.119 35.177 35.177 0 0 1-5.134 4.215 40.412 40.412 0 0 1-6.059 3.35 55.138 55.138 0 0 1-7.023 2.594 77.806 77.806 0 0 1-8.046 1.906 120 120 0 0 1-9.148 1.346c-3.443.373-6.895.658-10.348.854-3.875.226-7.75.374-11.626.462-4.328.088-8.656.138-12.984.128H90.942c-4.328.01-8.656-.04-12.984-.128a328.387 328.387 0 0 1-11.626-.462 203.003 203.003 0 0 1-10.348-.854 120 120 0 0 1-9.148-1.346 77.806 77.806 0 0 1-8.046-1.906 55.139 55.139 0 0 1-7.023-2.594 40.413 40.413 0 0 1-6.06-3.35 35.176 35.176 0 0 1-5.134-4.215 34.56 34.56 0 0 1-4.22-5.119 41.183 41.183 0 0 1-3.363-6.042 55.415 55.415 0 0 1-2.597-7.005 80.682 80.682 0 0 1-1.918-8.027 124.688 124.688 0 0 1-1.348-9.137 200.993 200.993 0 0 1-.856-10.326 325.212 325.212 0 0 1-.462-11.593 569.197 569.197 0 0 1-.128-12.96v-58.21c-.01-4.314.04-8.637.128-12.96.089-3.86.236-7.732.462-11.593.197-3.448.482-6.887.856-10.326.335-3.055.787-6.101 1.348-9.127a80.219 80.219 0 0 1 1.918-8.037 55.983 55.983 0 0 1 2.597-7.005 41.695 41.695 0 0 1 3.364-6.042 35.072 35.072 0 0 1 4.22-5.119 35.176 35.176 0 0 1 5.134-4.215 40.413 40.413 0 0 1 6.059-3.35 53.64 53.64 0 0 1 7.023-2.584 80.47 80.47 0 0 1 8.046-1.916 125.11 125.11 0 0 1 9.148-1.346c3.443-.373 6.895-.658 10.348-.854 3.875-.226 7.75-.374 11.626-.452 4.328-.098 8.656-.148 12.984-.138h74.126zm.01 4.009c4.298-.01 8.597.039 12.895.127 3.827.089 7.653.236 11.48.452 3.383.197 6.766.472 10.13.845 2.971.315 5.932.747 8.863 1.297a75.943 75.943 0 0 1 7.653 1.818 50.493 50.493 0 0 1 6.501 2.397 37.038 37.038 0 0 1 5.47 3.026 30.383 30.383 0 0 1 4.524 3.724 31.05 31.05 0 0 1 3.738 4.519 37.271 37.271 0 0 1 3.03 5.443 51.46 51.46 0 0 1 2.4 6.494 75.563 75.563 0 0 1 1.829 7.634c.54 2.928.974 5.875 1.298 8.842.374 3.36.65 6.73.846 10.11.217 3.822.374 7.634.453 11.456.088 4.293.137 8.577.137 12.87v58.212c0 4.293-.049 8.577-.137 12.87a317.503 317.503 0 0 1-.453 11.456c-.196 3.38-.472 6.75-.846 10.12a121.689 121.689 0 0 1-1.298 8.832 75.562 75.562 0 0 1-1.83 7.634 50.902 50.902 0 0 1-2.4 6.494 36.767 36.767 0 0 1-3.03 5.443 30.615 30.615 0 0 1-3.737 4.53 30.938 30.938 0 0 1-4.525 3.713 37.038 37.038 0 0 1-5.469 3.026 49.07 49.07 0 0 1-6.501 2.397 75.942 75.942 0 0 1-7.653 1.818c-2.931.55-5.892.982-8.863 1.306-3.364.364-6.747.649-10.13.836-3.827.216-7.653.373-11.48.452-4.298.098-8.597.137-12.895.137H90.932c-4.298 0-8.597-.04-12.895-.137a320.093 320.093 0 0 1-11.48-.452 193.696 193.696 0 0 1-10.13-.836 116.71 116.71 0 0 1-8.863-1.306 75.942 75.942 0 0 1-7.653-1.818 49.07 49.07 0 0 1-6.501-2.397 37.038 37.038 0 0 1-5.47-3.026 30.938 30.938 0 0 1-4.524-3.714 30.615 30.615 0 0 1-3.738-4.529 36.766 36.766 0 0 1-3.03-5.443 50.903 50.903 0 0 1-2.4-6.494 75.567 75.567 0 0 1-1.829-7.634 121.69 121.69 0 0 1-1.298-8.832c-.374-3.37-.65-6.74-.846-10.12a317.535 317.535 0 0 1-.453-11.456 623.851 623.851 0 0 1-.137-12.87V97.014c0-4.293.049-8.577.137-12.87.079-3.822.236-7.634.453-11.456.197-3.38.472-6.75.846-10.11.324-2.967.757-5.914 1.298-8.842a75.568 75.568 0 0 1 1.83-7.634 51.46 51.46 0 0 1 2.4-6.494 37.27 37.27 0 0 1 3.03-5.443 31.05 31.05 0 0 1 3.737-4.52 30.384 30.384 0 0 1 4.525-3.723 37.039 37.039 0 0 1 5.469-3.026 50.494 50.494 0 0 1 6.501-2.397 75.943 75.943 0 0 1 7.653-1.818c2.931-.55 5.892-.982 8.863-1.297 3.364-.373 6.747-.648 10.13-.845a344.71 344.71 0 0 1 11.48-.452c4.298-.088 8.597-.137 12.895-.127H165.078z" fill-rule="evenodd" fill="url(#i)"/></g></svg>

<?xml version="1.0" standalone="no"?><!-- Generator: Gravit.io --><svg xmlns="http://www.w3.org/2000/svg" xmlns:xlink="http://www.w3.org/1999/xlink" style="isolation:isolate" viewBox="0 0 256 256" width="256" height="256"><defs><filter id="OcCjMXnQoe4l6ETrbdiOknu0gi08VcOY" x="-200%" y="-200%" width="400%" height="400%" filterUnits="objectBoundingBox" color-interpolation-filters="sRGB"><feGaussianBlur xmlns="http://www.w3.org/2000/svg" in="SourceGraphic" stdDeviation="4.293609062839028"/><feOffset xmlns="http://www.w3.org/2000/svg" dx="0" dy="4" result="pf_100_offsetBlur"/><feFlood xmlns="http://www.w3.org/2000/svg" flood-color="#000000" flood-opacity="0.4"/><feComposite xmlns="http://www.w3.org/2000/svg" in2="pf_100_offsetBlur" operator="in" result="pf_100_dropShadow"/><feBlend xmlns="http://www.w3.org/2000/svg" in="SourceGraphic" in2="pf_100_dropShadow" mode="normal"/></filter></defs><g filter="url(#OcCjMXnQoe4l6ETrbdiOknu0gi08VcOY)"><linearGradient id="_lgradient_407" x1="0" y1="0" x2="-1.8369701987210297e-16" y2="1" gradientTransform="matrix(244.648,0,0,228.338,5.68,11.95)" gradientUnits="userSpaceOnUse"><stop offset="0.000009999999999999999%" stop-opacity="1" style="stop-color:rgb(238,0,255)"/><stop offset="100%" stop-opacity="1" style="stop-color:rgb(153,20,220)"/></linearGradient><path d=" M 165.689 11.95 C 239.745 11.95 250.328 22.507 250.328 96.494 L 250.328 155.745 C 250.328 229.731 239.745 240.288 165.689 240.288 L 90.319 240.288 C 16.264 240.288 5.68 229.731 5.68 155.745 L 5.68 96.494 C 5.68 22.507 16.264 11.95 90.319 11.95 L 165.689 11.95 Z " id="shape" fill="url(#_lgradient_407)"/></g><g opacity="0.4"><linearGradient id="_lgradient_408" x1="0.5166666666666668" y1="0" x2="0.5166666666666666" y2="1.0000000000000002" gradientTransform="matrix(244.65,0,0,228.34,5.68,11.95)" gradientUnits="userSpaceOnUse"><stop offset="0%" stop-opacity="1" style="stop-color:rgb(255,255,255)"/><stop offset="12.5%" stop-opacity="0.09803922" style="stop-color:rgb(255,255,255)"/><stop offset="92.500001%" stop-opacity="0.09803922" style="stop-color:rgb(0,0,0)"/><stop offset="100%" stop-opacity="0.49803922" style="stop-color:rgb(0,0,0)"/></linearGradient><path d=" M 165.068 11.951 C 169.396 11.941 173.724 11.991 178.052 12.089 C 181.927 12.167 185.803 12.315 189.678 12.541 C 193.131 12.737 196.583 13.022 200.026 13.395 C 203.085 13.73 206.144 14.181 209.174 14.741 C 211.889 15.243 214.574 15.881 217.22 16.657 C 219.62 17.355 221.971 18.219 224.243 19.241 C 226.358 20.184 228.384 21.304 230.302 22.591 C 232.142 23.829 233.863 25.244 235.437 26.806 C 237.001 28.378 238.417 30.088 239.656 31.925 C 240.945 33.841 242.066 35.865 243.02 37.967 C 244.043 40.247 244.909 42.585 245.617 44.972 C 246.394 47.615 247.034 50.297 247.535 53.009 C 248.096 56.035 248.548 59.081 248.883 62.136 C 249.257 65.575 249.542 69.014 249.739 72.462 C 249.965 76.323 250.112 80.194 250.201 84.055 C 250.289 88.378 250.339 92.701 250.329 97.014 L 250.329 155.226 C 250.339 159.549 250.289 163.862 250.201 168.185 C 250.112 172.056 249.965 175.917 249.739 179.778 C 249.542 183.226 249.257 186.675 248.883 190.104 C 248.548 193.159 248.096 196.215 247.535 199.241 C 247.034 201.943 246.394 204.625 245.617 207.268 C 244.909 209.655 244.043 212.003 243.02 214.273 C 242.066 216.385 240.945 218.399 239.656 220.315 C 238.417 222.152 237.001 223.872 235.437 225.434 C 233.863 226.996 232.142 228.411 230.302 229.649 C 228.384 230.936 226.358 232.056 224.243 232.999 C 221.971 234.021 219.62 234.885 217.22 235.593 C 214.574 236.369 211.889 237.007 209.174 237.499 C 206.144 238.068 203.085 238.51 200.026 238.845 C 196.583 239.218 193.131 239.503 189.678 239.699 C 185.803 239.925 181.927 240.073 178.052 240.161 C 173.724 240.249 169.396 240.299 165.068 240.289 L 90.942 240.289 C 86.614 240.299 82.286 240.249 77.958 240.161 C 74.083 240.073 70.207 239.925 66.332 239.699 C 62.879 239.503 59.427 239.218 55.984 238.845 C 52.925 238.51 49.866 238.068 46.836 237.499 C 44.121 237.007 41.436 236.369 38.79 235.593 C 36.39 234.885 34.039 234.021 31.767 232.999 C 29.652 232.056 27.626 230.936 25.708 229.649 C 23.868 228.411 22.147 226.996 20.573 225.434 C 19.009 223.872 17.593 222.152 16.354 220.315 C 15.065 218.399 13.944 216.385 12.99 214.273 C 11.967 212.003 11.101 209.655 10.393 207.268 C 9.616 204.625 8.976 201.943 8.475 199.241 C 7.914 196.215 7.462 193.159 7.127 190.104 C 6.753 186.675 6.468 183.226 6.271 179.778 C 6.045 175.917 5.898 172.056 5.809 168.185 C 5.721 163.862 5.671 159.549 5.681 155.226 L 5.681 97.014 C 5.671 92.701 5.721 88.378 5.809 84.055 C 5.898 80.194 6.045 76.323 6.271 72.462 C 6.468 69.014 6.753 65.575 7.127 62.136 C 7.462 59.081 7.914 56.035 8.475 53.009 C 8.976 50.297 9.616 47.615 10.393 44.972 C 11.101 42.585 11.967 40.247 12.99 37.967 C 13.944 35.865 15.065 33.841 16.354 31.925 C 17.593 30.088 19.009 28.378 20.573 26.806 C 22.147 25.244 23.868 23.829 25.708 22.591 C 27.626 21.304 29.652 20.184 31.767 19.241 C 34.039 18.219 36.39 17.355 38.79 16.657 C 41.436 15.881 44.121 15.243 46.836 14.741 C 49.866 14.181 52.925 13.73 55.984 13.395 C 59.427 13.022 62.879 12.737 66.332 12.541 C 70.207 12.315 74.083 12.167 77.958 12.089 C 82.286 11.991 86.614 11.941 90.942 11.951 L 165.068 11.951 Z  M 165.078 15.96 C 169.376 15.95 173.675 15.999 177.973 16.087 C 181.8 16.176 185.626 16.323 189.452 16.539 C 192.836 16.736 196.219 17.011 199.583 17.384 C 202.554 17.699 205.515 18.131 208.446 18.681 C 211.023 19.153 213.58 19.762 216.099 20.499 C 218.322 21.147 220.495 21.953 222.6 22.896 C 224.509 23.751 226.338 24.763 228.069 25.922 C 229.692 27.013 231.207 28.26 232.594 29.646 C 233.981 31.031 235.23 32.544 236.332 34.165 C 237.492 35.894 238.506 37.712 239.361 39.608 C 240.306 41.72 241.112 43.892 241.761 46.102 C 242.509 48.617 243.109 51.162 243.591 53.736 C 244.132 56.664 244.565 59.611 244.889 62.578 C 245.263 65.938 245.539 69.308 245.735 72.688 C 245.952 76.51 246.109 80.322 246.188 84.144 C 246.276 88.437 246.325 92.721 246.325 97.014 C 246.325 97.014 246.325 97.014 246.325 97.014 L 246.325 155.226 C 246.325 155.226 246.325 155.226 246.325 155.226 C 246.325 159.519 246.276 163.803 246.188 168.096 C 246.109 171.918 245.952 175.74 245.735 179.552 C 245.539 182.932 245.263 186.302 244.889 189.672 C 244.565 192.629 244.132 195.576 243.591 198.504 C 243.109 201.078 242.509 203.623 241.761 206.138 C 241.112 208.358 240.306 210.52 239.361 212.632 C 238.506 214.528 237.492 216.356 236.332 218.075 C 235.23 219.706 233.981 221.219 232.594 222.604 C 231.207 223.98 229.692 225.227 228.069 226.318 C 226.338 227.477 224.509 228.489 222.6 229.344 C 220.495 230.297 218.322 231.093 216.099 231.741 C 213.58 232.478 211.023 233.087 208.446 233.559 C 205.515 234.109 202.554 234.541 199.583 234.865 C 196.219 235.229 192.836 235.514 189.452 235.701 C 185.626 235.917 181.8 236.074 177.973 236.153 C 173.675 236.251 169.376 236.29 165.078 236.29 C 165.078 236.29 165.078 236.29 165.068 236.29 L 90.942 236.29 C 90.932 236.29 90.932 236.29 90.932 236.29 C 86.634 236.29 82.335 236.251 78.037 236.153 C 74.21 236.074 70.384 235.917 66.558 235.701 C 63.174 235.514 59.791 235.229 56.427 234.865 C 53.456 234.541 50.495 234.109 47.564 233.559 C 44.987 233.087 42.43 232.478 39.911 231.741 C 37.688 231.093 35.515 230.297 33.41 229.344 C 31.501 228.489 29.672 227.477 27.941 226.318 C 26.318 225.227 24.803 223.98 23.416 222.604 C 22.029 221.219 20.78 219.706 19.678 218.075 C 18.518 216.356 17.504 214.528 16.649 212.632 C 15.704 210.52 14.898 208.358 14.249 206.138 C 13.501 203.623 12.901 201.078 12.419 198.504 C 11.878 195.576 11.445 192.629 11.121 189.672 C 10.747 186.302 10.472 182.932 10.275 179.552 C 10.058 175.74 9.901 171.918 9.822 168.096 C 9.734 163.803 9.685 159.519 9.685 155.226 C 9.685 155.226 9.685 155.226 9.685 155.226 L 9.685 97.014 C 9.685 97.014 9.685 97.014 9.685 97.014 C 9.685 92.721 9.734 88.437 9.822 84.144 C 9.901 80.322 10.058 76.51 10.275 72.688 C 10.472 69.308 10.747 65.938 11.121 62.578 C 11.445 59.611 11.878 56.664 12.419 53.736 C 12.901 51.162 13.501 48.617 14.249 46.102 C 14.898 43.892 15.704 41.72 16.649 39.608 C 17.504 37.712 18.518 35.894 19.678 34.165 C 20.78 32.544 22.029 31.031 23.416 29.646 C 24.803 28.26 26.318 27.013 27.941 25.922 C 29.672 24.763 31.501 23.751 33.41 22.896 C 35.515 21.953 37.688 21.147 39.911 20.499 C 42.43 19.762 44.987 19.153 47.564 18.681 C 50.495 18.131 53.456 17.699 56.427 17.384 C 59.791 17.011 63.174 16.736 66.558 16.539 C 70.384 16.323 74.21 16.176 78.037 16.087 C 82.335 15.999 86.634 15.95 90.932 15.96 C 90.932 15.96 90.932 15.96 90.942 15.96 L 165.068 15.96 C 165.078 15.96 165.078 15.96 165.078 15.96 Z " fill-rule="evenodd" id="highlight" fill="url(#_lgradient_408)"/></g><g id="icons"/><g id="telephay"><linearGradient id="_lgradient_409" x1="0.631" y1="0.7750000000000001" x2="0.636" y2="0.583947577530077" gradientTransform="matrix(145,0,0,79.605,55.5,102.699)" gradientUnits="userSpaceOnUse"><stop offset="0%" stop-opacity="0.996" style="stop-color:rgb(237,210,243)"/><stop offset="100%" stop-opacity="1" style="stop-color:rgb(245,238,247)"/></linearGradient><path d=" M 55.5 102.699 L 55.5 150.183 C 55.5 156.551 56.701 161.132 59.046 163.924 C 61.281 166.605 65.634 167.979 72.113 167.979 L 87.5 167.979 L 107.791 182.304 L 128.085 167.979 L 183.887 167.979 C 190.366 167.979 194.719 166.605 196.954 163.924 C 199.299 161.132 200.5 156.551 200.5 150.183 L 200.5 102.699 L 55.5 102.699 Z " id="Path" fill="url(#_lgradient_409)"/><linearGradient id="_lgradient_410" x1="0.361" y1="0.010003582983259318" x2="0.3609999999999998" y2="0.9670036011073365" gradientTransform="matrix(145,0,0,108.608,55.5,73.696)" gradientUnits="userSpaceOnUse"><stop offset="0%" stop-opacity="1" style="stop-color:rgb(253,253,251)"/><stop offset="100%" stop-opacity="1" style="stop-color:rgb(240,233,223)"/></linearGradient><path d=" M 72.113 73.699 C 65.635 73.618 61.281 75.147 59.047 77.827 C 56.702 80.62 55.5 85.202 55.5 91.568 L 55.5 147.95 L 87.5 167.979 L 107.792 182.303 L 128.084 167.979 L 200.5 112.992 L 200.5 91.568 C 200.5 85.202 199.298 80.62 196.953 77.827 C 194.719 75.147 190.366 73.699 183.887 73.699 L 72.113 73.699 L 72.113 73.699 Z " id="Path" fill="url(#_lgradient_410)"/><g opacity="0.1"><linearGradient id="_lgradient_411" x1="0" y1="0" x2="-1.8369701987210297e-16" y2="1" gradientTransform="matrix(72.416,0,0,54.987,128.084,112.992)" gradientUnits="userSpaceOnUse"><stop offset="0.000009999999999999999%" stop-opacity="1" style="stop-color:rgb(236,87,255)"/><stop offset="50%" stop-opacity="1" style="stop-color:rgb(197,81,255)"/><stop offset="100%" stop-opacity="1" style="stop-color:rgb(169,15,245)"/></linearGradient><path d=" M 200.5 112.992 L 128.084 167.979 L 183.887 167.979 C 190.366 167.979 194.719 166.606 196.953 163.924 C 199.298 161.132 200.5 156.551 200.5 150.183 L 200.5 112.992 L 200.5 112.992 Z " id="Path" fill="url(#_lgradient_411)"/></g><g opacity="0.1"><linearGradient id="_lgradient_412" x1="0" y1="0" x2="-1.8369701987210297e-16" y2="1" gradientTransform="matrix(32,0,0,20.184,55.5,147.95)" gradientUnits="userSpaceOnUse"><stop offset="0.000009999999999999999%" stop-opacity="1" style="stop-color:rgb(236,87,255)"/><stop offset="50%" stop-opacity="1" style="stop-color:rgb(197,81,255)"/><stop offset="100%" stop-opacity="1" style="stop-color:rgb(169,15,245)"/></linearGradient><path d=" M 55.5 147.95 L 55.5 150.183 C 55.5 156.551 56.702 161.132 59.047 163.924 C 61.281 166.606 65.679 168.738 72.113 167.979 L 87.5 167.979 L 55.5 147.95 Z " id="Path" fill="url(#_lgradient_412)"/></g><path d=" M 72.113 73.699 C 65.635 73.618 61.281 75.147 59.046 77.828 C 56.701 80.621 55.5 85.202 55.5 91.569 L 55.5 93.381 C 55.5 87.015 56.701 82.434 59.046 79.641 C 61.281 76.96 65.635 75.431 72.113 75.512 L 183.887 75.512 C 190.366 75.512 194.719 76.96 196.954 79.641 C 199.299 82.434 200.5 87.015 200.5 93.381 L 200.5 91.569 C 200.5 85.202 199.299 80.621 196.954 77.828 C 194.719 75.148 190.366 73.699 183.887 73.699 L 72.113 73.699 Z " id="Path" fill="rgb(255,255,255)"/><g opacity="0.58"><linearGradient id="_lgradient_413" x1="0" y1="0" x2="-1.8369701987210297e-16" y2="1" gradientTransform="matrix(61.828,0,0,67.352,80.44,83.655)" gradientUnits="userSpaceOnUse"><stop offset="0.000009999999999999999%" stop-opacity="1" style="stop-color:rgb(236,87,255)"/><stop offset="50%" stop-opacity="1" style="stop-color:rgb(197,81,255)"/><stop offset="100%" stop-opacity="1" style="stop-color:rgb(169,15,245)"/></linearGradient><path d=" M 121.878 83.655 C 123.759 86.384 125.36 89.066 126.701 91.723 C 128.02 94.332 129.12 97.045 129.99 99.836 C 130.873 102.581 131.519 105.398 131.919 108.255 C 132.319 111.124 132.49 114.156 132.49 117.331 C 132.49 120.53 132.319 123.559 131.919 126.451 C 131.52 129.321 130.86 132.099 129.99 134.827 C 129.124 137.605 128.024 140.304 126.701 142.895 C 125.36 145.553 123.759 148.255 121.878 151.008 L 131.788 151.008 C 133.526 148.515 135.094 145.907 136.48 143.202 C 137.786 140.639 138.871 137.969 139.725 135.222 C 140.614 132.448 141.258 129.601 141.654 126.715 C 142.077 123.751 142.268 120.627 142.268 117.287 C 142.268 113.924 142.077 110.776 141.654 107.86 C 141.261 104.988 140.616 102.156 139.725 99.397 C 138.875 96.662 137.79 94.007 136.48 91.46 C 135.094 88.755 133.526 86.148 131.788 83.655 L 121.878 83.655 L 121.878 83.655 Z  M 80.44 97.687 L 80.44 108.912 L 91.666 108.912 L 91.666 97.687 L 80.44 97.687 Z  M 100.084 113.121 L 100.084 121.54 L 119.729 121.54 L 119.729 113.121 L 100.084 113.121 Z  M 80.615 125.75 L 80.615 136.844 L 85.571 136.844 C 85.571 137.845 85.432 138.317 85.176 139.343 C 84.92 140.369 84.541 141.386 84.08 142.413 C 83.618 143.439 83.098 144.462 82.457 145.439 C 81.843 146.4 81.169 147.323 80.44 148.201 L 87.5 148.201 C 88.141 147.325 88.741 146.415 89.254 145.439 C 89.792 144.4 90.232 143.314 90.57 142.194 C 90.928 141.042 91.18 139.799 91.358 138.422 C 91.564 137.046 91.666 135.496 91.666 133.819 L 91.666 125.75 L 80.615 125.75 L 80.615 125.75 Z " id="Compound Path" fill="url(#_lgradient_413)"/></g></g></svg>
